Sources/FrostedUI/Resources/Icons.xcassets/list12.imageset/list-12.svg

<svg width="12" height="12" viewBox="0 0 12 12" fill="none" xmlns="http://www.w3.org/2000/svg" data-fui-icon="true">
  <path
    d="M9.83984 0C11.0328 0 12 0.967221 12 2.16016V9.83984C12 11.0328 11.0328 12 9.83984 12H2.16016C0.967221 12 0 11.0328 0 9.83984V2.16016C0 0.967221 0.967221 0 2.16016 0H9.83984ZM2.16016 1.5C1.79565 1.5 1.5 1.79565 1.5 2.16016V9.83984C1.5 10.2044 1.79565 10.5 2.16016 10.5H9.83984C10.2044 10.5 10.5 10.2044 10.5 9.83984V2.16016C10.5 1.79565 10.2044 1.5 9.83984 1.5H2.16016ZM3.25 6.5C3.66421 6.5 4 6.83579 4 7.25C4 7.66421 3.66421 8 3.25 8C2.83579 8 2.5 7.66421 2.5 7.25C2.5 6.83579 2.83579 6.5 3.25 6.5ZM8.25 6.5C8.66421 6.5 9 6.83579 9 7.25C9 7.66421 8.66421 8 8.25 8H5.75C5.33579 8 5 7.66421 5 7.25C5 6.83579 5.33579 6.5 5.75 6.5H8.25ZM3.25 3.5C3.66421 3.5 4 3.83579 4 4.25C4 4.66421 3.66421 5 3.25 5C2.83579 5 2.5 4.66421 2.5 4.25C2.5 3.83579 2.83579 3.5 3.25 3.5ZM8.25 3.5C8.66421 3.5 9 3.83579 9 4.25C9 4.66421 8.66421 5 8.25 5H5.75C5.33579 5 5 4.66421 5 4.25C5 3.83579 5.33579 3.5 5.75 3.5H8.25Z"
    fill="currentColor"
  />
</svg>

<svg xmlns="http://www.w3.org/2000/svg" width="12" height="12" fill="none" data-fui-icon="true" viewBox="0 0 12 12"><path fill="currentColor" d="M9.84 0A2.16 2.16 0 0 1 12 2.16v7.68A2.16 2.16 0 0 1 9.84 12H2.16A2.16 2.16 0 0 1 0 9.84V2.16A2.16 2.16 0 0 1 2.16 0zM2.16 1.5a.66.66 0 0 0-.66.66v7.68c0 .364.296.66.66.66h7.68a.66.66 0 0 0 .66-.66V2.16a.66.66 0 0 0-.66-.66zm1.09 5a.75.75 0 1 1 0 1.5.75.75 0 0 1 0-1.5m5 0a.75.75 0 0 1 0 1.5h-2.5a.75.75 0 0 1 0-1.5zm-5-3a.75.75 0 1 1 0 1.5.75.75 0 0 1 0-1.5m5 0a.75.75 0 0 1 0 1.5h-2.5a.75.75 0 0 1 0-1.5z"/></svg>
